svgs/thin/tower-control.svg

<svg xmlns="http://www.w3.org/2000/svg" viewBox="0 0 448 512"><!--! Font Awesome Pro 6.6.0 by @fontawesome - https://fontawesome.com License - https://fontawesome.com/license (Commercial License) Copyright 2024 Fonticons, Inc. --><path d="M169 0c-4.4 0-8 3.6-8 8s3.6 8 8 8l48 0 0 64-56 0c-17.7 0-32 14.3-32 32l0 16L40 128c-21 0-36.3 19.8-31 40.1L49 321c-9.8 3-17 12.1-17 23l0 16c0 13.3 10.7 24 24 24l25 0 0 120c0 4.4 3.6 8 8 8s8-3.6 8-8l0-120 256 0 0 120c0 4.4 3.6 8 8 8s8-3.6 8-8l0-120 23 0c13.3 0 24-10.7 24-24l0-16c0-10.2-6.3-18.8-15.2-22.3l40.1-153.6c5.3-20.3-10-40.1-31-40.1L321 128l0-16c0-17.7-14.3-32-32-32l-56 0 0-64 48 0c4.4 0 8-3.6 8-8s-3.6-8-8-8L225 0 169 0zM384.7 320L321 320l0-151.9c0 0 0 0 0-.1l0-24 88.9 0c10.5 0 18.1 9.9 15.5 20L385.2 318l-.5 2zM305 320l-160 0 0-151.9c0 0 0 0 0-.1l0-24 160 0 0 15.9c0 0 0 0 0 .1l0 160zm-176 0l-63.7 0-.5-2L24.5 164c-2.6-10.1 5-20 15.5-20l88.9 0 0 15.9c0 0 0 0 0 .1l0 160zm232 48L89 368l-33 0c-4.4 0-8-3.6-8-8l0-16c0-4.4 3.6-8 8-8l81 0 176 0 79 0c4.4 0 8 3.6 8 8l0 16c0 4.4-3.6 8-8 8l-31 0zM305 128l-160 0 0-16c0-8.8 7.2-16 16-16l128 0c8.8 0 16 7.2 16 16l0 16z"/></svg>

<svg xmlns="http://www.w3.org/2000/svg" viewBox="0 0 448 512"><!--! Font Awesome Pro 6.4.2 by @fontawesome - https://fontawesome.com License - https://fontawesome.com/license (Commercial License) Copyright 2023 Fonticons, Inc. --><path d="M169 0c-4.4 0-8 3.6-8 8s3.6 8 8 8h48V80H161c-17.7 0-32 14.3-32 32v16H40c-21 0-36.3 19.8-31 40.1L49 321c-9.8 3-17 12.1-17 23v16c0 13.3 10.7 24 24 24H81V504c0 4.4 3.6 8 8 8s8-3.6 8-8V384H353V504c0 4.4 3.6 8 8 8s8-3.6 8-8V384h23c13.3 0 24-10.7 24-24V344c0-10.2-6.3-18.8-15.2-22.3l40.1-153.6c5.3-20.3-10-40.1-31-40.1H321V112c0-17.7-14.3-32-32-32H233V16h48c4.4 0 8-3.6 8-8s-3.6-8-8-8H225 169zM384.7 320H321V168.1l0-.1V144h88.9c10.5 0 18.1 9.9 15.5 20L385.2 318l-.5 2zM305 320H145V168.1l0-.1V144H305v15.9l0 .1V320zm-176 0H65.2l-.5-2L24.5 164c-2.6-10.1 5-20 15.5-20H129v15.9l0 .1V320zm232 48H89 56c-4.4 0-8-3.6-8-8V344c0-4.4 3.6-8 8-8h81H313h79c4.4 0 8 3.6 8 8v16c0 4.4-3.6 8-8 8H361zM305 128H145V112c0-8.8 7.2-16 16-16H289c8.8 0 16 7.2 16 16v16z"/></svg>
